svg/u1f383.svg

<svg viewBox="0 0 128 128" xmlns="http://www.w3.org/2000/svg">
  <defs/>
  <path id="SVGID_5_" d="M109.44,34.58 C98.68,25.96 83.53,24.22 64.19,24.22 C44.98,24.22 29.92,25.89 19.16,34.4 C2.9,47.29 -1.48,76.26 9.05,94.81 C19.24,112.76 32.75,120.45 64.19,120.45 C95.64,120.45 110.77,111.55 119.34,94.81 C129.01,75.93 125.5,47.43 109.44,34.58 Z M57.28,77.72 L62.37,71.39 C63.26,70.29 64.79,70.23 65.75,71.27 L71.83,77.84 C72.8,78.88 72.43,79.73 71,79.73 L58.25,79.73 C56.82,79.72 56.39,78.81 57.28,77.72 Z M28.83,69.87 L39.91,57.39 C40.55,56.67 41.4,56.79 41.8,57.66 L48.52,72.02 C48.93,72.88 48.48,73.51 47.53,73.4 L29.4,71.36 C28.46,71.25 28.2,70.58 28.83,69.87 Z M96.22,85.77 L91.39,101.65 C91.05,102.75 90.02,103.2 89.1,102.65 L84.09,99.68 C83.18,99.13 81.69,99.17 80.8,99.77 L74.31,104.11 C73.41,104.71 71.99,104.64 71.15,103.95 L65.79,99.6 C64.95,98.92 63.59,98.94 62.77,99.66 L57.48,104.28 C56.65,104.99 55.24,105.12 54.33,104.56 L47.58,100.4 C46.67,99.84 45.15,99.79 44.2,100.27 L38.77,103.06 C37.83,103.54 36.74,103.06 36.37,101.98 L30.7,85.74 C30.33,84.66 30.79,84.17 31.74,84.66 L39.79,88.81 C40.74,89.29 42.15,89.06 42.94,88.3 L46.2,85.15 C46.98,84.39 48.37,84.24 49.28,84.81 L55.59,88.8 C56.49,89.37 57.91,89.26 58.73,88.55 L62.76,85.07 C63.57,84.36 64.97,84.3 65.84,84.94 L70.96,88.68 C71.83,89.33 73.27,89.35 74.16,88.75 L78.95,85.47 C79.84,84.86 81.26,84.91 82.11,85.58 L86.02,88.64 C86.87,89.31 88.3,89.38 89.21,88.78 L95.19,84.85 C96.1,84.25 96.56,84.67 96.22,85.77 Z M99.13,71.12 L81.06,73.59 C80.11,73.72 79.65,73.1 80.04,72.23 L86.41,57.72 C86.79,56.84 87.64,56.69 88.29,57.4 L99.67,69.62 C100.31,70.31 100.07,70.98 99.13,71.12 Z" fill="#F57C00"/>
  <path d="M98.33,38.11 C111.88,52.76 115.99,78.52 108.08,99.36 C105.629,105.825 102.156,111.077 97.621,115.14 C95.204,116.146 92.588,117.011 89.753,117.734 C97.208,113.689 102.484,107.318 105.85,98.44 C113.42,78.47 109.54,53.82 96.6,39.85 C90.83,33.6 83.17,31.12 73.72,30.29 C75.79,31.94 77.67,34.51 79.23,38.5 C84.89,53 86.6,78.49 83.31,99.1 C81.772,108.702 79.244,115.629 75.668,120 C74.476,120.1 73.255,120.183 72.006,120.25 C76.275,116.585 79.225,109.445 80.93,98.7 C84.17,78.49 82.51,53.57 77,39.45 C74.11,32.04 70.28,30.17 65.14,29.95 C65.1,29.95 65.07,29.97 65.03,29.97 L65.03,29.95 L64.75,29.95 C64.35,29.97 63.95,29.98 63.58,29.98 L63.54,29.98 C63.44,29.98 63.35,29.95 63.25,29.95 C57.99,30.1 54.1,31.87 51.16,39.28 C45.45,53.78 43.73,79.32 47.16,98.69 C49.133,109.803 51.848,116.71 55.876,120.249 C54.639,120.185 53.435,120.106 52.261,120.012 C48.929,115.769 46.569,108.978 44.82,99.12 C41.32,79.35 43.09,53.2 48.97,38.31 C50.5,34.44 52.34,31.93 54.37,30.3 C45.06,31.14 37.53,33.58 31.84,39.67 C18.42,54.02 14.37,79.27 22.42,98.4 C26.291,107.621 31.465,113.97 38.712,117.924 C35.822,117.21 33.173,116.339 30.73,115.305 C26.423,111.307 23.005,106.061 20.21,99.41 C11.8,79.4 16.06,52.97 30.14,37.93 C36.71,30.9 45.38,28.38 56.1,27.67 C55.58,27.41 55.08,27.17 54.55,26.97 C53.08,26.42 51.46,26 49.73,25.69 C47.992,25.385 46.231,25.201 44.473,25.181 C47.717,24.786 51.131,24.537 54.715,24.392 C54.926,24.463 55.134,24.535 55.34,24.61 C56.52,25.05 57.57,25.64 58.7,26.3 C59.21,26.58 59.74,26.72 60.36,26.87 L60.92,27.01 C61.74,27.22 62.48,27.39 63.23,27.44 L63.98,27.44 C64.01,27.44 64.04,27.43 64.06,27.43 C64.38,27.43 64.61,27.44 64.84,27.44 C65.17,27.42 65.48,27.35 65.79,27.28 C66.06,27.19 66.34,27.06 66.59,26.95 C66.89,26.82 67.18,26.68 67.45,26.58 C69.33,25.89 71.36,25.23 73.67,24.56 C73.839,24.511 74.006,24.463 74.174,24.417 C78.015,24.587 81.66,24.88 85.107,25.348 C84.693,25.381 84.313,25.513 83.9,25.54 C82.95,25.61 81.98,25.54 81.02,25.63 C78.75,25.84 76.5,26.32 74.31,26.96 C73.51,27.19 72.78,27.42 72.05,27.65 C82.91,28.36 91.67,30.92 98.33,38.11 Z" fill="#FF9800"/>
  <path id="SVGID_3_" d="M58.61,26.89 C58.55,25.84 58.67,24.74 58.67,23.89 C58.67,21.2 57.26,18.97 55.4,17.14 C53.84,15.6 51.18,14.66 49.82,13.08 C49.43,12.62 48.99,11.19 49.07,10.63 C49.41,8.23 51.46,5.6 53.94,5.18 C55.25,4.97 56.38,5.41 57.39,6.17 C63.05,10.44 67.74,14.01 68.67,21.48 C68.85,22.95 69.21,24.48 69.2,26 C69.19,28.43 68.46,29.29 66.04,29.92 C64.41,30.35 61.35,30.55 59.84,29.62 C58.97,29.07 58.68,28.03 58.61,26.89 Z" fill="#2E7D32"/>
  <path d="M57.28,77.72 L62.37,71.39 C63.26,70.29 64.79,70.23 65.75,71.27 L71.83,77.84 C72.8,78.88 72.43,79.73 71,79.73 L58.25,79.73 C56.82,79.72 56.39,78.81 57.28,77.72 Z" fill="#422B0D"/>
  <path d="M28.83,69.87 L39.91,57.39 C40.55,56.67 41.4,56.79 41.8,57.66 L48.52,72.02 C48.93,72.88 48.48,73.51 47.53,73.4 L29.4,71.36 C28.46,71.25 28.2,70.58 28.83,69.87 Z" fill="#422B0D"/>
  <path d="M96.22,85.77 L91.39,101.65 C91.05,102.75 90.02,103.2 89.1,102.65 L84.09,99.68 C83.18,99.13 81.69,99.17 80.8,99.77 L74.31,104.11 C73.41,104.71 71.99,104.64 71.15,103.95 L65.79,99.6 C64.95,98.92 63.59,98.94 62.77,99.66 L57.48,104.28 C56.65,104.99 55.24,105.12 54.33,104.56 L47.58,100.4 C46.67,99.84 45.15,99.79 44.2,100.27 L38.77,103.06 C37.83,103.54 36.74,103.06 36.37,101.98 L30.7,85.74 C30.33,84.66 30.79,84.17 31.74,84.66 L39.79,88.81 C40.74,89.29 42.15,89.06 42.94,88.3 L46.2,85.15 C46.98,84.39 48.37,84.24 49.28,84.81 L55.59,88.8 C56.49,89.37 57.91,89.26 58.73,88.55 L62.76,85.07 C63.57,84.36 64.97,84.3 65.84,84.94 L70.96,88.68 C71.83,89.33 73.27,89.35 74.16,88.75 L78.95,85.47 C79.84,84.86 81.26,84.91 82.11,85.58 L86.02,88.64 C86.87,89.31 88.3,89.38 89.21,88.78 L95.19,84.85 C96.1,84.25 96.56,84.67 96.22,85.77 Z" fill="#422B0D"/>
  <path d="M99.13,71.12 L81.06,73.59 C80.11,73.72 79.65,73.1 80.04,72.23 L86.41,57.72 C86.79,56.84 87.64,56.69 88.29,57.4 L99.67,69.62 C100.31,70.31 100.07,70.98 99.13,71.12 Z" fill="#422B0D"/>
</svg>

<svg viewBox="0 0 128 128" xmlns="http://www.w3.org/2000/svg" xmlns:xlink="http://www.w3.org/1999/xlink">
  <g>
    <g>
      <path id="SVGID_5_" d="M109.44,34.58c-10.76-8.62-25.91-10.36-45.25-10.36 c-19.21,0-34.27,1.67-45.03,10.18C2.9,47.29-1.48,76.26,9.05,94.81c10.19,17.95,23.7,25.64,55.14,25.64 c31.45,0,46.58-8.9,55.15-25.64C129.01,75.93,125.5,47.43,109.44,34.58z M57.28,77.72l5.09-6.33c0.89-1.1,2.42-1.16,3.38-0.12 l6.08,6.57c0.97,1.04,0.6,1.89-0.83,1.89H58.25C56.82,79.72,56.39,78.81,57.28,77.72z M28.83,69.87l11.08-12.48 c0.64-0.72,1.49-0.6,1.89,0.27l6.72,14.36c0.41,0.86-0.04,1.49-0.99,1.38L29.4,71.36C28.46,71.25,28.2,70.58,28.83,69.87z M96.22,85.77l-4.83,15.88c-0.34,1.1-1.37,1.55-2.29,1l-5.01-2.97c-0.91-0.55-2.4-0.51-3.29,0.09l-6.49,4.34 c-0.9,0.6-2.32,0.53-3.16-0.16l-5.36-4.35c-0.84-0.68-2.2-0.66-3.02,0.06l-5.29,4.62c-0.83,0.71-2.24,0.84-3.15,0.28 l-6.75-4.16c-0.91-0.56-2.43-0.61-3.38-0.13l-5.43,2.79c-0.94,0.48-2.03,0-2.4-1.08L30.7,85.74c-0.37-1.08,0.09-1.57,1.04-1.08 l8.05,4.15c0.95,0.48,2.36,0.25,3.15-0.51l3.26-3.15c0.78-0.76,2.17-0.91,3.08-0.34l6.31,3.99c0.9,0.57,2.32,0.46,3.14-0.25 l4.03-3.48c0.81-0.71,2.21-0.77,3.08-0.13l5.12,3.74c0.87,0.65,2.31,0.67,3.2,0.07l4.79-3.28c0.89-0.61,2.31-0.56,3.16,0.11 l3.91,3.06c0.85,0.67,2.28,0.74,3.19,0.14l5.98-3.93C96.1,84.25,96.56,84.67,96.22,85.77z M99.13,71.12l-18.07,2.47 c-0.95,0.13-1.41-0.49-1.02-1.36l6.37-14.51c0.38-0.88,1.23-1.03,1.88-0.32l11.38,12.22C100.31,70.31,100.07,70.98,99.13,71.12 z" fill="#F57C00"/>
      <g>
        <defs>
          <path id="SVGID_1_" d="M109.44,34.58c-10.76-8.62-25.91-10.36-45.25-10.36c-19.21,0-34.27,1.67-45.03,10.18 C2.9,47.29-1.48,76.26,9.05,94.81c10.19,17.95,23.7,25.64,55.14,25.64c31.45,0,46.58-8.9,55.15-25.64 C129.01,75.93,125.5,47.43,109.44,34.58z"/>
        </defs>
        <clipPath id="SVGID_2_">
          <use overflow="visible" xlink:href="#SVGID_1_"/>
        </clipPath>
        <g clip-path="url(#SVGID_2_)">
          <path d="M98.33,38.11c-6.66-7.19-15.42-9.75-26.28-10.46c0.73-0.23,1.46-0.46,2.26-0.69 c2.19-0.64,4.44-1.12,6.71-1.33c0.96-0.09,1.93-0.02,2.88-0.09c0.46-0.03,0.88-0.19,1.35-0.2c0.52-0.01,1.03,0.05,1.55,0.07 c0.43,0.01,0.78,0.2,1.18,0.25s0.81-0.06,1.21-0.01c0.64,0.08,1.64,0.44,1.82-0.47c0.18-0.88-0.61-1.32-1.34-1.51 c-0.91-0.24-1.95-0.3-2.88-0.43c-3.85-0.53-8.26-0.09-13.12,1.32c-2.31,0.67-4.34,1.33-6.22,2.02 c-0.27,0.1-0.56,0.24-0.86,0.37c-0.25,0.11-0.53,0.24-0.8,0.33c-0.31,0.07-0.62,0.14-0.95,0.16c-0.23,0-0.46-0.01-0.78-0.01 c-0.02,0-0.05,0.01-0.08,0.01c-0.25,0-0.5,0-0.75,0c-0.75-0.05-1.49-0.22-2.31-0.43l-0.56-0.14 c-0.62-0.15-1.15-0.29-1.66-0.57c-1.13-0.66-2.18-1.25-3.36-1.69c-1.6-0.58-3.36-1.05-5.21-1.39 c-2.12-0.38-4.27-0.57-6.42-0.54c-1.01,0.01-2.01,0.17-3.02,0.21c-0.68,0.02-1.69,0.01-1.97,0.84 c-0.13,0.37,0.16,0.61,0.37,0.84c1.12,1.28,3.31,0.63,4.77,0.61c1.96-0.02,3.93,0.17,5.87,0.51c1.73,0.31,3.35,0.73,4.82,1.28 c0.53,0.2,1.03,0.44,1.55,0.7c-10.72,0.71-19.39,3.23-25.96,10.26C16.06,52.97,11.8,79.4,20.21,99.41 c7.82,18.61,20.52,26.22,43.93,26.26c22.86,0,37.23-8.61,43.94-26.31C115.99,78.52,111.88,52.76,98.33,38.11z M22.42,98.4 c-8.05-19.13-4-44.38,9.42-58.73c5.69-6.09,13.22-8.53,22.53-9.37c-2.03,1.63-3.87,4.14-5.4,8.01 c-5.88,14.89-7.65,41.04-4.15,60.81c2.17,12.23,5.28,19.74,10.02,23.52C38.41,120.76,28.7,113.36,22.42,98.4z M64.08,123.17 c-0.03,0-0.05,0-0.08,0c-8.87-0.03-13.76-7.13-16.84-24.48c-3.43-19.37-1.71-44.91,4-59.41c2.94-7.41,6.83-9.18,12.09-9.33 c0.1,0,0.19,0.03,0.29,0.03c0.01,0,0.02,0,0.04,0c0.37,0,0.77-0.01,1.17-0.03c0.09,0,0.18,0,0.28,0v0.02 c0.04,0,0.07-0.02,0.11-0.02c5.14,0.22,8.97,2.09,11.86,9.5c5.51,14.12,7.17,39.04,3.93,59.25 C78.32,115.15,72.79,123.15,64.08,123.17z M105.85,98.44c-5.49,14.48-16.06,22.29-32.88,24.22 c5.03-3.92,8.44-11.7,10.34-23.56c3.29-20.61,1.58-46.1-4.08-60.6c-1.56-3.99-3.44-6.56-5.51-8.21 c9.45,0.83,17.11,3.31,22.88,9.56C109.54,53.82,113.42,78.47,105.85,98.44z" fill="#FF9800"/>
        </g>
      </g>
    </g>
    <path id="SVGID_3_" d="M58.61,26.89c-0.06-1.05,0.06-2.15,0.06-3c0-2.69-1.41-4.92-3.27-6.75 c-1.56-1.54-4.22-2.48-5.58-4.06c-0.39-0.46-0.83-1.89-0.75-2.45c0.34-2.4,2.39-5.03,4.87-5.45c1.31-0.21,2.44,0.23,3.45,0.99 c5.66,4.27,10.35,7.84,11.28,15.31c0.18,1.47,0.54,3,0.53,4.52c-0.01,2.43-0.74,3.29-3.16,3.92c-1.63,0.43-4.69,0.63-6.2-0.3 C58.97,29.07,58.68,28.03,58.61,26.89z" fill="#2E7D32"/>
  </g>
  <path d="M57.28,77.72l5.09-6.33c0.89-1.1,2.42-1.16,3.38-0.12l6.08,6.57c0.97,1.04,0.6,1.89-0.83,1.89H58.25 C56.82,79.72,56.39,78.81,57.28,77.72z" fill="#422B0D"/>
  <path d="M28.83,69.87l11.08-12.48c0.64-0.72,1.49-0.6,1.89,0.27l6.72,14.36c0.41,0.86-0.04,1.49-0.99,1.38 L29.4,71.36C28.46,71.25,28.2,70.58,28.83,69.87z" fill="#422B0D"/>
  <path d="M96.22,85.77l-4.83,15.88c-0.34,1.1-1.37,1.55-2.29,1l-5.01-2.97c-0.91-0.55-2.4-0.51-3.29,0.09 l-6.49,4.34c-0.9,0.6-2.32,0.53-3.16-0.16l-5.36-4.35c-0.84-0.68-2.2-0.66-3.02,0.06l-5.29,4.62c-0.83,0.71-2.24,0.84-3.15,0.28 l-6.75-4.16c-0.91-0.56-2.43-0.61-3.38-0.13l-5.43,2.79c-0.94,0.48-2.03,0-2.4-1.08L30.7,85.74c-0.37-1.08,0.09-1.57,1.04-1.08 l8.05,4.15c0.95,0.48,2.36,0.25,3.15-0.51l3.26-3.15c0.78-0.76,2.17-0.91,3.08-0.34l6.31,3.99c0.9,0.57,2.32,0.46,3.14-0.25 l4.03-3.48c0.81-0.71,2.21-0.77,3.08-0.13l5.12,3.74c0.87,0.65,2.31,0.67,3.2,0.07l4.79-3.28c0.89-0.61,2.31-0.56,3.16,0.11 l3.91,3.06c0.85,0.67,2.28,0.74,3.19,0.14l5.98-3.93C96.1,84.25,96.56,84.67,96.22,85.77z" fill="#422B0D"/>
  <path d="M99.13,71.12l-18.07,2.47c-0.95,0.13-1.41-0.49-1.02-1.36l6.37-14.51c0.38-0.88,1.23-1.03,1.88-0.32 l11.38,12.22C100.31,70.31,100.07,70.98,99.13,71.12z" fill="#422B0D"/>
</svg>
